X: 41942
T: Walking Jake
R: reel
M: 4/4
K: Dmajor
dAdf efda|~a2 gf e3c|dAdf efda|abgf e2d2:|
fdcB Bffg|edcA Acef|dGGF GAFG|1 ABGF EAce:|2 ABGF E2D2||

